artwork/resources/intui/icons/shell/filetree/maven_dark.svg

<svg width="16" height="16" viewBox="0 0 16 16" fill="none" xmlns="http://www.w3.org/2000/svg">
<g clip-path="url(#clip0_3_843)">
<g clip-path="url(#clip1_3_843)">
<path d="M13.1621 3.20095C15.2238 3.20095 15.582 4.93562 15.2238 6.49867L13.8964 12.5115C13.801 12.9438 13.3555 13.2206 12.9015 13.1297C12.4476 13.0388 12.1569 12.6146 12.2524 12.1823L13.5034 6.49867C14.0739 4.02014 10.839 4.32583 9.52649 6.16628L8.11076 12.5159C8.0153 12.9482 7.56989 13.2251 7.1159 13.1342C7.09727 13.1304 7.07892 13.1261 7.06087 13.1213C6.6287 13.015 6.35674 12.6025 6.44951 12.1823L7.7054 6.4947C7.96685 5.37561 7.42991 4.82527 6.65007 4.72885C5.72182 4.6293 4.4504 5.17572 3.74084 6.17069L3.7399 6.16398L3.73837 6.16628L2.31807 12.522C2.22161 12.9542 1.77556 13.2301 1.32178 13.1382C0.867995 13.0464 0.578324 12.6215 0.674778 12.1894L2.5029 3.99827C2.59936 3.5661 3.04541 3.29022 3.49919 3.38208C4.01496 3.48649 4.22722 3.95949 4.12783 4.41318C5.07731 3.66511 6.18382 3.13659 7.44866 3.20608C8.6834 3.2309 9.28702 3.89438 9.48446 4.76224C10.6229 3.78903 11.5848 3.20095 13.1621 3.20095Z" fill="#548AF7"/>
</g>
</g>
<defs>
<clipPath id="clip0_3_843">
<rect width="16" height="16" fill="white"/>
</clipPath>
<clipPath id="clip1_3_843">
<rect width="16" height="16" fill="white"/>
</clipPath>
</defs>
</svg>

<svg width="16" height="16" viewBox="0 0 16 16" fill="none" xmlns="http://www.w3.org/2000/svg"><g clip-path="url(#clip0_3_843)"><g clip-path="url(#clip1_3_843)"><path d="M13.162 3.201c2.062 0 2.42 1.735 2.062 3.298l-1.328 6.013c-.095.432-.54.709-.995.618-.453-.091-.744-.515-.649-.948L13.503 6.5c.57-2.479-2.664-2.173-3.977-.333l-1.415 6.35c-.096.432-.541.71-.995.618a.963.963 0 0 1-.055-.013c-.432-.106-.704-.519-.611-.939l1.255-5.687c.262-1.12-.275-1.67-1.055-1.766-.928-.1-2.2.447-2.91 1.442v-.007l-.002.002-1.42 6.356c-.096.432-.542.708-.996.616-.454-.092-.744-.517-.647-.949L2.503 4c.096-.433.542-.709.996-.617.516.104.728.577.629 1.031.95-.748 2.056-1.276 3.32-1.207 1.235.025 1.839.688 2.036 1.556 1.139-.973 2.1-1.561 3.678-1.561z" fill="#548AF7"/></g></g><defs><clipPath id="clip0_3_843"><path fill="#fff" d="M0 0h16v16H0z"/></clipPath><clipPath id="clip1_3_843"><path fill="#fff" d="M0 0h16v16H0z"/></clipPath></defs></svg>
